icons/svg/Navigation/home.svg

<svg width="24" height="24" viewBox="0 0 24 24" fill="none" xmlns="http://www.w3.org/2000/svg">
<g clip-path="url(#clip0_125_1172)">
<path fill-rule="evenodd" clip-rule="evenodd" d="M10.8 2.65C11.1462 2.39036 11.5673 2.25 12 2.25C12.4327 2.25 12.8538 2.39036 13.2 2.65L20.2 7.9C20.4484 8.08629 20.65 8.32786 20.7889 8.60557C20.9277 8.88328 21 9.18951 21 9.5V19C21 19.5304 20.7893 20.0391 20.4142 20.4142C20.0391 20.7893 19.5304 21 19 21H14.1C13.8083 21 13.5285 20.8841 13.3222 20.6778C13.1159 20.4715 13 20.1917 13 19.9V14C13 13.7348 12.8946 13.4804 12.7071 13.2929C12.5196 13.1054 12.2652 13 12 13C11.7348 13 11.4804 13.1054 11.2929 13.2929C11.1054 13.4804 11 13.7348 11 14V19.9C11 20.0445 10.9715 20.1875 10.9163 20.321C10.861 20.4544 10.78 20.5757 10.6778 20.6778C10.5757 20.78 10.4544 20.861 10.321 20.9163C10.1875 20.9715 10.0445 21 9.9 21H5C4.46957 21 3.96086 20.7893 3.58579 20.4142C3.21071 20.0391 3 19.5304 3 19V9.5C3 9.18951 3.07229 8.88328 3.21115 8.60557C3.35 8.32786 3.55161 8.08629 3.8 7.9L10.8 2.65ZM12 4.25L5 9.5V19H9V14C9 13.2044 9.31607 12.4413 9.87868 11.8787C10.4413 11.3161 11.2044 11 12 11C12.7956 11 13.5587 11.3161 14.1213 11.8787C14.6839 12.4413 15 13.2044 15 14V19H19V9.5L12 4.25Z" fill="#3C46B1"/>
</g>
<defs>
<clipPath id="clip0_125_1172">
<rect width="24" height="24" fill="white"/>
</clipPath>
</defs>
</svg>

<svg xmlns="http://www.w3.org/2000/svg" width="24" height="24" fill="none"><g clip-path="url(#a)"><path fill="currentColor" fill-rule="evenodd" d="M10.8 2.65a2 2 0 0 1 2.4 0l7 5.25a2 2 0 0 1 .8 1.6V19a2 2 0 0 1-2 2h-4.9a1.1 1.1 0 0 1-1.1-1.1V14a1 1 0 0 0-2 0v5.9A1.1 1.1 0 0 1 9.9 21H5a2 2 0 0 1-2-2V9.5a2 2 0 0 1 .8-1.6zm1.2 1.6L5 9.5V19h4v-5a3 3 0 0 1 6 0v5h4V9.5z" clip-rule="evenodd"/></g><defs><clipPath id="a"><path fill="currentColor" d="M0 0h24v24H0z"/></clipPath></defs></svg>
